Sources/FrostedUI/Resources/Icons.xcassets/twitterFilled24.imageset/twitter-filled-24.svg

<svg width="24" height="24" viewBox="0 0 24 24" fill="none" xmlns="http://www.w3.org/2000/svg" data-fui-icon="true">
  <path
    d="M23.25 5.13125C22.4226 5.49214 21.5337 5.73599 20.5993 5.84621C21.5525 5.28438 22.2838 4.39287 22.6287 3.33164C21.7369 3.8525 20.7489 4.23095 19.6975 4.43384C18.8552 3.55208 17.6562 3 16.3284 3C13.7797 3 11.7126 5.03468 11.7126 7.54536C11.7126 7.9004 11.7543 8.24569 11.8315 8.57928C7.99368 8.38908 4.59381 6.57971 2.31666 3.83104C1.92029 4.50406 1.69237 5.28438 1.69237 6.11542C1.69237 7.69167 2.50791 9.08356 3.74557 9.89802C2.98851 9.87363 2.27702 9.66977 1.65472 9.32936V9.38788C1.65472 11.5894 3.24516 13.426 5.35781 13.8435C4.96937 13.9469 4.5621 14.0015 4.14194 14.0015C3.84467 14.0015 3.55432 13.9742 3.2729 13.9215C3.86052 15.726 5.56492 17.0409 7.58542 17.076C6.00489 18.2952 4.01412 19.0219 1.85191 19.0219C1.47932 19.0219 1.11169 19.0004 0.75 18.9585C2.79329 20.2489 5.21908 21 7.82522 21C16.3175 21 20.96 14.0766 20.96 8.07207C20.96 7.87699 20.955 7.67996 20.9461 7.48488C21.8478 6.84307 22.6307 6.04422 23.248 5.13417L23.25 5.13125Z"
    fill="currentColor"
  />
</svg>

<svg xmlns="http://www.w3.org/2000/svg" width="24" height="24" fill="none" data-fui-icon="true" viewBox="0 0 24 24"><path fill="currentColor" d="M23.25 5.131a9.4 9.4 0 0 1-2.65.715 4.57 4.57 0 0 0 2.029-2.514c-.892.52-1.88.899-2.931 1.102A4.65 4.65 0 0 0 16.328 3c-2.548 0-4.615 2.035-4.615 4.545q.001.533.119 1.034c-3.838-.19-7.238-2-9.515-4.748a4.5 4.5 0 0 0-.625 2.284c0 1.577.816 2.969 2.054 3.783a4.66 4.66 0 0 1-2.091-.569v.059c0 2.201 1.59 4.038 3.703 4.456a4.7 4.7 0 0 1-2.085.078c.588 1.804 2.292 3.119 4.312 3.154a9.36 9.36 0 0 1-5.733 1.946q-.56 0-1.102-.063A13.2 13.2 0 0 0 7.825 21c8.493 0 13.135-6.923 13.135-12.928q0-.294-.014-.587a9.3 9.3 0 0 0 2.302-2.35z"/></svg>
